X: 13
T:Harper's Frolic
R:Reel
Z:Added by Alf Warnock
M:2/4
L:1/8
K:D
A/2G/2|:FA DA/2G/2|FA Dd|cd ec|d/2c/2d/2e/2 dA/2G/2|
FA DA/2G/2|FA Dd|cd e/2d/2c|[1 d2 dA/2G/2:|[2 d2 d>e|
|:fd d/2e/2f|ge e/2f/2g|fd df|e/2d/2c/2B/2 A3/2e/|
fd d/2e/2f|ge e/2f/2g|f/2e/2d e/2d/2c|[1 d2 d3/2e/:|[2 d2 d2|]


